svgs/thin/book-circle-arrow-right.svg

<svg xmlns="http://www.w3.org/2000/svg" viewBox="0 0 640 512"><!--! Font Awesome Pro 6.3.0 by @fontawesome - https://fontawesome.com License - https://fontawesome.com/license (Commercial License) Copyright 2023 Fonticons, Inc. --><path d="M360 495.1h-304c-23.38 0-42.13-20.14-39.8-43.99c2.023-20.78 20.7-36.01 41.59-36.01L312 416C316.4 416 320 412.4 320 408s-3.582-7.998-8-8l-256-.0059c-15.68 0-29.82 6.516-40 16.93V64c0-26.51 21.49-48 48-48h352c8.836 0 16 7.162 16 16v152C432 188.4 435.6 192 440 192S448 188.4 448 184V32c0-17.67-14.33-32-32-32H64C28.66 0 0 28.65 0 64v391.1c0 30.93 25.07 56 56 56L360 512c4.418 0 8-3.582 8-8S364.4 495.1 360 495.1zM509.7 298.3c-3.125-3.125-8.188-3.125-11.31 0s-3.125 8.188 0 11.31L548.7 360h-124.7c-4.406 0-8.003 3.578-8.003 8s3.597 8 8.003 8h124.7l-50.34 50.34c-3.125 3.125-3.125 8.188 0 11.31C499.9 439.2 501.9 440 504 440s4.094-.7813 5.656-2.344l64-64c3.125-3.125 3.125-8.188 0-11.31L509.7 298.3zM496 224C416.5 224 352 288.5 352 368s64.46 144 144 144s144-64.46 144-144S575.5 224 496 224zM496 496c-70.58 0-128-57.42-128-128s57.42-128 128-128s128 57.42 128 128S566.6 496 496 496z"/></svg>

<svg xmlns="http://www.w3.org/2000/svg" viewBox="0 0 640 512"><!-- Font Awesome Pro 6.0.0-alpha2 by @fontawesome - https://fontawesome.com License - https://fontawesome.com/license (Commercial License) --><path d="M360 495.994H56C32.625 495.994 13.875 475.85 16.195 452.004C18.219 431.221 36.898 415.99 57.781 415.992L312 416C316.418 416.002 320 412.42 320 408.002S316.418 400.004 312 400.002L56 399.996C40.324 399.996 26.176 406.512 16 416.93V64C16 37.49 37.492 16 64 16H416C424.836 16 432 23.162 432 32V184.002C432 188.418 435.582 192 440 192S448 188.418 448 184.002V32C448 14.326 433.672 0 416 0H64C28.656 0 0 28.654 0 64V455.992C0 486.92 25.07 511.994 56 511.994L360 512C364.418 512 368 508.418 368 504V503.992C368 499.574 364.418 495.994 360 495.994ZM509.656 298.344C506.531 295.219 501.469 295.219 498.344 298.344S495.219 306.531 498.344 309.656L548.688 360H424.004C419.598 360 416.004 363.578 416.004 368S419.598 376 424.004 376H548.688L498.344 426.344C495.219 429.469 495.219 434.531 498.344 437.656C499.906 439.219 501.938 440 504 440S508.094 439.219 509.656 437.656L573.656 373.656C576.781 370.531 576.781 365.469 573.656 362.344L509.656 298.344ZM496 224C416.461 224 352 288.463 352 368S416.461 512 496 512S640 447.537 640 368S575.539 224 496 224ZM496 496C425.422 496 368 438.58 368 368S425.422 240 496 240S624 297.42 624 368S566.578 496 496 496Z"/></svg>
